X:139
T:Firk Called St.Michael's Mount. (p)1657.PLFD.140
M:C
L:1/8
Q:1/2=75
S:Playford, Dancing Master,Supplement to 3rd Ed.,1657
O:England
H:1657.
Z:Chris Partington.
K:Bb
G>AB>A G2D2|Gddcd2f2|d>=ef>fg2d2|(ed)(cB)B2d2|
ddcd BcAF|GABcF2F2|A>BcA d>=efd|fg=e>dd2f>g|
a2a2b2d2|g>gfed2B2|(cA)(dc) (BG)ga|gdg>^fg4|]
